public/images/misc/question-mark.svg

<svg fill="none" height="366" viewBox="0 0 366 366" width="366" xmlns="http://www.w3.org/2000/svg"><g fill="#000"><path d="m182.667.666992c-100.886 0-182.667 81.781008-182.667 182.667008 0 100.885 81.781 182.666 182.667 182.666 100.885 0 182.666-81.781 182.666-182.666 0-100.886-81.781-182.667008-182.666-182.667008zm0 333.016008c-82.9009 0-150.3501-67.448-150.3501-150.349 0-82.902 67.4485-150.3501 150.3501-150.3501 82.907 0 150.356 67.4481 150.356 150.3501 0 82.901-67.451 150.349-150.356 150.349z"/><path d="m152.705 73.7884c-22.342 9.8393-36.753 28.5196-42 49.4276-2.505 9.982 5.609 19.534 15.899 19.534 7.401 0 13.764-5.035 15.647-12.195 3.262-12.401 12.264-23.324 26.331-28.286 13.944-4.9201 30.047-1.535 40.844 8.565 20.188 18.885 16.567 50.171-4.954 64.487l-6.567 4.367-8.259 5.494c-15.025 9.992-24.054 26.841-24.054 44.885v9.92l32.314-21.492 24.456-16.264c37.731-25.098 44.706-79.096 11.1-113.1368-20.859-21.1275-53.583-27.2702-80.758-15.3035z"/><path d="m184.026 254.931c-12.151 0-22.002 9.85-22.002 21.999 0 12.148 9.851 21.999 22.002 21.999 12.149 0 21.999-9.851 21.999-21.999 0-12.152-9.85-21.999-21.999-21.999z"/></g></svg>

<svg width="366" height="366" viewBox="0 0 366 366" fill="none" xmlns="http://www.w3.org/2000/svg">
<path d="M182.667 0.666992C81.781 0.666992 0 82.448 0 183.334C0 284.219 81.781 366 182.667 366C283.552 366 365.333 284.219 365.333 183.334C365.333 82.448 283.552 0.666992 182.667 0.666992ZM182.667 333.683C99.7661 333.683 32.3169 266.235 32.3169 183.334C32.3169 100.432 99.7654 32.9839 182.667 32.9839C265.574 32.9839 333.023 100.432 333.023 183.334C333.023 266.235 265.572 333.683 182.667 333.683Z" fill="black"/>
<path d="M152.705 73.7884C130.363 83.6277 115.952 102.308 110.705 123.216C108.2 133.198 116.314 142.75 126.604 142.75C134.005 142.75 140.368 137.715 142.251 130.555C145.513 118.154 154.515 107.231 168.582 102.269C182.526 97.3489 198.629 100.734 209.426 110.834C229.614 129.719 225.993 161.005 204.472 175.321L197.905 179.688L189.646 185.182C174.621 195.174 165.592 212.023 165.592 230.067V239.987L197.906 218.495L222.362 202.231C260.093 177.133 267.068 123.135 233.462 89.0942C212.603 67.9667 179.879 61.824 152.704 73.7907L152.705 73.7884Z" fill="black"/>
<path d="M184.026 254.931C171.875 254.931 162.024 264.781 162.024 276.93C162.024 289.078 171.875 298.929 184.026 298.929C196.175 298.929 206.025 289.078 206.025 276.93C206.025 264.778 196.175 254.931 184.026 254.931Z" fill="black"/>
</svg>
